sources/design/Outline/0.svg

<svg:svg xmlns:cc="http://creativecommons.org/ns#" xmlns:dc="http://purl.org/dc/elements/1.1/" xmlns:inkscape="http://www.inkscape.org/namespaces/inkscape" xmlns:rdf="http://www.w3.org/1999/02/22-rdf-syntax-ns#" xmlns:sodipodi="http://sodipodi.sourceforge.net/DTD/sodipodi-0.dtd" xmlns:svg="http://www.w3.org/2000/svg" xml:space="preserve" width="1000" height="1000" version="1.1" style="clip-rule:evenodd;fill-rule:evenodd;image-rendering:optimizeQuality;shape-rendering:geometricPrecision;text-rendering:geometricPrecision" viewBox="0 0 1000 1000" id="svg10" sodipodi:docname="0.svg" inkscape:version="1.1.1 (3bf5ae0d25, 2021-09-20)"><svg:metadata id="metadata14"><rdf:RDF><cc:Work rdf:about=""><dc:format>image/svg+xml</dc:format><dc:type rdf:resource="http://purl.org/dc/dcmitype/StillImage" /></cc:Work></rdf:RDF></svg:metadata><sodipodi:namedview pagecolor="#ffffff" bordercolor="#666666" borderopacity="1" objecttolerance="10" gridtolerance="10" guidetolerance="10" inkscape:pageopacity="0" inkscape:pageshadow="2" inkscape:window-width="1920" inkscape:window-height="1009" id="namedview12" showgrid="false" inkscape:zoom="0.6002692" inkscape:cx="302.36434" inkscape:cy="418.14573" inkscape:window-x="1920" inkscape:window-y="0" inkscape:window-maximized="1" inkscape:current-layer="svg10" showguides="true" inkscape:guide-bbox="true" inkscape:document-rotation="0" inkscape:pagecheckerboard="0"><sodipodi:guide position="0,1000" orientation="0,1" id="guide16" inkscape:label="" inkscape:locked="true" inkscape:color="rgb(0,0,255)" /><sodipodi:guide position="1763.3122,2036.1693" orientation="1000,0" id="guide18" /><sodipodi:guide position="0,200" orientation="0,1" id="guide20" inkscape:label="base" inkscape:locked="true" inkscape:color="rgb(0,0,255)" /><inkscape:grid type="xygrid" id="grid24" originx="-473.37552" originy="-489.69235" /><sodipodi:guide position="0,0" orientation="0,1" id="guide34" inkscape:label="bottom" inkscape:locked="true" inkscape:color="rgb(0,0,255)" /><sodipodi:guide position="225.05109,1693.3186" orientation="0,1" id="guide44" inkscape:label="" inkscape:locked="false" inkscape:color="rgb(0,0,255)" /><sodipodi:guide position="0,900" orientation="0,1" id="guide46" inkscape:label="" inkscape:locked="true" inkscape:color="rgb(0,0,255)" /><sodipodi:guide position="481.14846,521.64742" orientation="-1,0" id="guide841" inkscape:label="width" inkscape:locked="false" inkscape:color="rgb(0,0,255)" /></sodipodi:namedview>
 <svg:defs id="defs4"><inkscape:path-effect effect="spiro" id="path-effect875" is_visible="true" lpeversion="1" /><inkscape:path-effect effect="spiro" id="path-effect871" is_visible="true" lpeversion="1" /><inkscape:path-effect effect="spiro" id="path-effect852" is_visible="true" lpeversion="1" /><inkscape:path-effect effect="spiro" id="path-effect850" is_visible="true" lpeversion="1" /><inkscape:path-effect effect="spiro" id="path-effect851" is_visible="true" lpeversion="1" />
  <svg:style type="text/css" id="style2">
   
    .fil0 {fill:#EF7F1A;fill-rule:nonzero}
   
  </svg:style>
 <inkscape:path-effect effect="spiro" id="path-effect1214" is_visible="true" lpeversion="1" /><inkscape:path-effect effect="spiro" id="path-effect1195" is_visible="true" lpeversion="1" /><inkscape:path-effect effect="spiro" id="path-effect992" is_visible="true" lpeversion="1" /><inkscape:path-effect effect="spiro" id="path-effect1060" is_visible="true" lpeversion="1" /><inkscape:path-effect effect="spiro" id="path-effect1047" is_visible="true" lpeversion="1" /><inkscape:path-effect effect="spiro" id="path-effect1085" is_visible="true" lpeversion="1" /><inkscape:path-effect effect="spiro" id="path-effect1286" is_visible="true" lpeversion="1" /><inkscape:path-effect effect="spiro" id="path-effect1305" is_visible="true" lpeversion="1" /></svg:defs>
 
<svg:g id="path849-3"><svg:path style="color:#000000;fill:#1a5fb4;fill-rule:nonzero;stroke-linecap:round;stroke-linejoin:round;-inkscape-stroke:none;paint-order:fill stroke markers" d="M 264.95898,77.888672 C 227.76709,77.829214 191.14454,87.859601 158.875,105.15625 C 116.05747,128.10668 81.630375,162.9762 56.267578,202.44336 C 5.7229194,281.09612 -8.1433072,373.67718 -14.722656,460.24805 C -19.783362,526.83665 -21.382552,598.16644 1.6855468999999985,666.7480499999999 C 13.249039999999999,701.1263899999999 31.051689999999997,734.25317 56.419922,762.0917999999999 C 81.87736699999999,790.0283299999999 114.71552,812.1056299999999 152.41016000000002,822.7148399999999 C 197.25294000000002,835.3359099999999 244.65673000000004,830.4842499999999 286.30859,813.3769499999999 C 327.75919999999996,796.3523099999999 362.74273,767.8908599999999 390.0293,734.3906199999999 C 444.40646,667.6307499999999 467.09385,584.6733299999999 481.98632999999995,506.3867199999999 C 496.90635,427.9552999999999 506.21953999999994,342.8107799999999 482.00582999999995,260.4492199999999 C 469.86239,219.14384 449.19827,179.40782 418.625,146.99414 C 387.92704,114.44827 347.58435,90.089041 302.20117,81.416016 C 289.81741,79.049397 277.35628,77.908491 264.95898,77.888672 M 264.85352,137.95312 C 273.67411,137.94052000000002 282.41603,138.7211 290.9375,140.34961 C 322.20636,146.32530000000003 352.12962,163.93779 374.97852,188.16211 C 397.9521,212.51862 414.57542,243.8058 424.44336,277.37109 C 444.25251,344.75088 437.29071,420.27644999999995 423.04296999999997,495.17382999999995 C 408.83110999999997,569.88258 387.48724,642.5060599999999 343.50977,696.4980499999999 C 321.61902,723.3737399999999 294.09374,745.3170799999999 263.51367,757.87695 C 233.13486,770.35417 198.78046,773.4347399999999 168.66602,764.95898 C 143.28215,757.81466 119.44739000000001,742.17661 100.76758000000001,721.67773 C 81.998554,701.08096 67.882473,675.35071 58.554687,647.61914 C 39.840228,591.98093 40.234421,528.88801 45.105469,464.79492 C 51.429241,381.58693 65.237807,299.46709 106.74414,234.87891 C 127.40684,202.72558999999998 155.00321,175.30782 187.22070000000002,158.03906 C 211.22744000000003,145.17132 238.39172000000002,137.99102 264.85352,137.95312 M 259.09766,206.39062 C 230.92031000000003,205.59007000000003 203.44577,213.0026 179.42969000000002,226.00781 C 152.12480000000002,240.79398 129.88017000000002,262.31047 112.89844000000002,286.625 C 79.06980100000001,335.061 66.87206900000002,392.00988 60.88671900000002,445.20898 C 55.62191800000002,492.00369 54.26599400000002,543.0553 71.55859400000003,592.33789 C 80.23475000000003,617.06427 93.60171600000002,640.84578 112.56250000000003,660.75586 C 131.60915000000003,680.7561 155.98171000000002,696.3596299999999 183.93945000000002,703.61133 C 215.07357000000002,711.6869099999999 247.37593000000004,708.5535699999999 276.14258,697.47852 C 304.75333,686.46349 329.15893,668.03467 348.55859,646.0957 C 387.19539999999995,602.40156 404.79001,547.46047 414.86719,495.54296999999997 C 425.38101,441.37586 429.44171,381.40171 408.65039,324.49218999999994 C 398.21221,295.92103999999995 381.5475,268.89676999999995 358.01758,247.52929999999992 C 334.36287,226.04849999999993 304.28454,210.98148999999992 271.20898,207.24413999999993 C 267.16298,206.78695999999994 263.12299,206.50498999999994 259.09766,206.39061999999993 L 259.09766,206.39062 M 257.43945,266.38281 C 259.80486,266.44301 262.15082,266.6031 264.4707,266.86523 C 283.41999000000004,269.0064 302.57502,278.23075 317.67969000000005,291.94727 C 332.90914000000004,305.7771 344.76687000000004,324.47641 352.29492000000005,345.08203000000003 C 367.43608000000006,386.52605000000005 365.4051400000001,435.48508000000004 355.96680000000003,484.11133000000007 C 346.92022000000003,530.7192200000001 331.45805,574.8579100000001 303.61133000000007,606.3496100000001 C 289.76923000000005,622.0035600000001 272.80644000000007,634.4695500000001 254.58594000000005,641.4843700000001 C 236.52133000000006,648.4391800000001 216.44447000000005,650.0569500000001 199.00391000000005,645.5332000000001 C 183.30086000000006,641.46014 168.07135000000005,632.04037 156.01172000000005,619.3769500000001 C 143.86623000000006,606.6233800000001 134.43389000000005,590.3077900000001 128.17578000000006,572.4726600000001 C 115.59985000000006,536.6322200000002 115.69063000000006,494.76886000000013 120.51172000000005,451.91797000000014 C 125.98645000000005,403.2573800000001 137.22448000000006,356.5800200000001 162.08789000000004,320.98047000000014 C 174.45218000000006,303.2772200000001 190.23739000000003,288.38640000000015 208.00000000000006,278.7675800000001 C 223.41798000000006,270.41842000000014 240.88158000000004,265.96165000000013 257.4394500000001,266.3828100000001 L 257.43945,266.38281" id="path22958" /></svg:g></svg:svg>

<svg:svg xmlns:cc="http://creativecommons.org/ns#" xmlns:dc="http://purl.org/dc/elements/1.1/" xmlns:inkscape="http://www.inkscape.org/namespaces/inkscape" xmlns:rdf="http://www.w3.org/1999/02/22-rdf-syntax-ns#" xmlns:sodipodi="http://sodipodi.sourceforge.net/DTD/sodipodi-0.dtd" xmlns:svg="http://www.w3.org/2000/svg" xml:space="preserve" width="1000" height="1000" version="1.1" style="clip-rule:evenodd;fill-rule:evenodd;image-rendering:optimizeQuality;shape-rendering:geometricPrecision;text-rendering:geometricPrecision" viewBox="0 0 1000 1000" id="svg10" sodipodi:docname="0.svg" inkscape:version="1.1.1 (3bf5ae0d25, 2021-09-20)"><svg:metadata id="metadata14"><rdf:RDF><cc:Work rdf:about=""><dc:format>image/svg+xml</dc:format><dc:type rdf:resource="http://purl.org/dc/dcmitype/StillImage" /></cc:Work></rdf:RDF></svg:metadata><sodipodi:namedview pagecolor="#ffffff" bordercolor="#666666" borderopacity="1" objecttolerance="10" gridtolerance="10" guidetolerance="10" inkscape:pageopacity="0" inkscape:pageshadow="2" inkscape:window-width="1920" inkscape:window-height="1009" id="namedview12" showgrid="false" inkscape:zoom="0.6002692" inkscape:cx="302.36434" inkscape:cy="418.14573" inkscape:window-x="1920" inkscape:window-y="0" inkscape:window-maximized="1" inkscape:current-layer="svg10" showguides="true" inkscape:guide-bbox="true" inkscape:document-rotation="0" inkscape:pagecheckerboard="0"><sodipodi:guide position="0,1000" orientation="0,1" id="guide16" inkscape:label="" inkscape:locked="true" inkscape:color="rgb(0,0,255)" /><sodipodi:guide position="1763.3122,2036.1693" orientation="1000,0" id="guide18" /><sodipodi:guide position="0,200" orientation="0,1" id="guide20" inkscape:label="base" inkscape:locked="true" inkscape:color="rgb(0,0,255)" /><inkscape:grid type="xygrid" id="grid24" originx="-473.37552" originy="-489.69235" /><sodipodi:guide position="0,0" orientation="0,1" id="guide34" inkscape:label="bottom" inkscape:locked="true" inkscape:color="rgb(0,0,255)" /><sodipodi:guide position="225.05109,1693.3186" orientation="0,1" id="guide44" inkscape:label="" inkscape:locked="false" inkscape:color="rgb(0,0,255)" /><sodipodi:guide position="0,900" orientation="0,1" id="guide46" inkscape:label="" inkscape:locked="true" inkscape:color="rgb(0,0,255)" /><sodipodi:guide position="481.14846,521.64742" orientation="-1,0" id="guide841" inkscape:label="width" inkscape:locked="false" inkscape:color="rgb(0,0,255)" /></sodipodi:namedview>
 <svg:defs id="defs4"><inkscape:path-effect effect="spiro" id="path-effect875" is_visible="true" lpeversion="1" /><inkscape:path-effect effect="spiro" id="path-effect871" is_visible="true" lpeversion="1" /><inkscape:path-effect effect="spiro" id="path-effect852" is_visible="true" lpeversion="1" /><inkscape:path-effect effect="spiro" id="path-effect850" is_visible="true" lpeversion="1" /><inkscape:path-effect effect="spiro" id="path-effect851" is_visible="true" lpeversion="1" />
  <svg:style type="text/css" id="style2">
   
    .fil0 {fill:#EF7F1A;fill-rule:nonzero}
   
  </svg:style>
 <inkscape:path-effect effect="spiro" id="path-effect1214" is_visible="true" lpeversion="1" /><inkscape:path-effect effect="spiro" id="path-effect1195" is_visible="true" lpeversion="1" /><inkscape:path-effect effect="spiro" id="path-effect992" is_visible="true" lpeversion="1" /><inkscape:path-effect effect="spiro" id="path-effect1060" is_visible="true" lpeversion="1" /><inkscape:path-effect effect="spiro" id="path-effect1047" is_visible="true" lpeversion="1" /><inkscape:path-effect effect="spiro" id="path-effect1085" is_visible="true" lpeversion="1" /><inkscape:path-effect effect="spiro" id="path-effect1286" is_visible="true" lpeversion="1" /><inkscape:path-effect effect="spiro" id="path-effect1305" is_visible="true" lpeversion="1" /></svg:defs>
 
<svg:g id="path849-3"><svg:path style="color:#000000;fill:#1a5fb4;fill-rule:nonzero;stroke-linecap:round;stroke-linejoin:round;-inkscape-stroke:none" d="M 264.95898,77.888672 C 227.76709,77.829214 191.14454,87.859601 158.875,105.15625 116.05747,128.10668 81.630375,162.9762 56.267578,202.44336 5.7229194,281.09612 -8.1433072,373.67718 -14.722656,460.24805 c -5.060706,66.5886 -6.659896,137.91839 16.4082029,206.5 11.5634931,34.37834 29.3661431,67.50512 54.7343751,95.34375 25.457445,27.93653 58.295598,50.01383 95.990238,60.62304 44.84278,12.62107 92.24657,7.76941 133.89843,-9.33789 41.45061,-17.02464 76.43414,-45.48609 103.72071,-78.98633 54.37716,-66.75987 77.06455,-149.71729 91.95703,-228.0039 14.92002,-78.43142 24.23321,-163.57594 0.0195,-245.9375 C 469.86239,219.14384 449.19827,179.40782 418.625,146.99414 387.92704,114.44827 347.58435,90.089041 302.20117,81.416016 289.81741,79.049397 277.35628,77.908491 264.95898,77.888672 Z m -0.10546,60.064448 c 8.82059,-0.0126 17.56251,0.76798 26.08398,2.39649 31.26886,5.97569 61.19212,23.58818 84.04102,47.8125 22.97358,24.35651 39.5969,55.64369 49.46484,89.20898 19.80915,67.37979 12.84735,142.90536 -1.40039,217.80274 -14.21186,74.70875 -35.55573,147.33223 -79.5332,201.32422 -21.89075,26.87569 -49.41603,48.81903 -79.9961,61.3789 -30.37881,12.47722 -64.73321,15.55779 -94.84765,7.08203 -25.38387,-7.14432 -49.21863,-22.78237 -67.89844,-43.28125 C 81.998554,701.08096 67.882473,675.35071 58.554687,647.61914 39.840228,591.98093 40.234421,528.88801 45.105469,464.79492 51.429241,381.58693 65.237807,299.46709 106.74414,234.87891 c 20.6627,-32.15332 48.25907,-59.57109 80.47656,-76.83985 24.00674,-12.86774 51.17102,-20.04804 77.63282,-20.08594 z m -5.75586,68.4375 c -28.17735,-0.80055 -55.65189,6.61198 -79.66797,19.61719 -27.30489,14.78617 -49.54952,36.30266 -66.53125,60.61719 -33.828639,48.436 -46.026371,105.38488 -52.011721,158.58398 -5.264801,46.79471 -6.620725,97.84632 10.671875,147.12891 8.676156,24.72638 22.043122,48.50789 41.003906,68.41797 19.04665,20.00024 43.41921,35.60377 71.37695,42.85547 31.13412,8.07558 63.43648,4.94224 92.20313,-6.13281 28.61075,-11.01503 53.01635,-29.44385 72.41601,-51.38282 38.63681,-43.69414 56.23142,-98.63523 66.3086,-150.55273 10.51382,-54.16711 14.57452,-114.14126 -6.2168,-171.05078 -10.43818,-28.57115 -27.10289,-55.59542 -50.63281,-76.96289 -23.65471,-21.4808 -53.73304,-36.54781 -86.8086,-40.28516 -4.046,-0.45718 -8.08599,-0.73915 -12.11132,-0.85352 z m -1.65821,59.99219 c 2.36541,0.0602 4.71137,0.22029 7.03125,0.48242 18.94929,2.14117 38.10432,11.36552 53.20899,25.08204 15.22945,13.82983 27.08718,32.52914 34.61523,53.13476 15.14116,41.44402 13.11022,90.40305 3.67188,139.0293 -9.04658,46.60789 -24.50875,90.74658 -52.35547,122.23828 -13.8421,15.65395 -30.80489,28.11994 -49.02539,35.13476 -18.06461,6.95481 -38.14147,8.57258 -55.58203,4.04883 -15.70305,-4.07306 -30.93256,-13.49283 -42.99219,-26.15625 -12.14549,-12.75357 -21.57783,-29.06916 -27.83594,-46.90429 -12.57593,-35.84044 -12.48515,-77.7038 -7.66406,-120.55469 5.47473,-48.66059 16.71276,-95.33795 41.57617,-130.9375 12.36429,-17.70325 28.1495,-32.59407 45.91211,-42.21289 15.41798,-8.34916 32.88158,-12.80593 49.43945,-12.38477 z" id="path22882" /></svg:g></svg:svg>
